(Filename: Крепление фиксатора на капот (верх).tap)
(Post processor: Hypertherm edge.scpost)
(Date: 19.03.2019)
G21 (Units: Metric)
G40
G90
(Part: Развертка - Крепление фиксатора на капот [верх])
(Process: Врезка снаружи, 0, T1: Плазма, 0,9 мм прорез)
G00X29.2519Y5.9500
M07
G04 P0.5
G01Y3.9500F10000
G03I0.0000J2.0500F10000.0
G01Y5.9500F10000
M08
G00X39.2519
M07
G04 P0.5
G01Y3.9500
G03I0.0000J2.0500F10000.0
G01Y5.9500F10000
M08
G00X49.2519
M07
G04 P0.5
G01Y3.9500
G03I0.0000J2.0500F10000.0
G01Y5.9500F10000
M08
G00X23.0370Y56.6333
M07
G04 P0.5
G01X22.5193Y54.7015
G02X22.8375Y54.1503I-0.1165J-0.4347F10000.0
G03X24.8660Y53.6068I1.0142J-0.2718
G02X25.2517Y53.9377I0.4347J-0.1165
X33.5336Y54.0889I4.1707J-1.5518
G01X34.1677Y52.5581F10000
G02X33.9994Y52.0101I-0.4157J-0.1722F10000.0
G03X44.5044I5.2525J-7.9758
G02X44.3362Y52.5581I0.2475J0.3758
G01X44.9702Y54.0889F10000
G02X53.2522Y53.9377I4.1113J-1.7029F10000.0
X53.6379Y53.6068I-0.0489J-0.4473
G03X55.6664Y54.1503I1.0142J0.2718
G02X55.9846Y54.7015I0.4347J0.1165
G01X59.1404Y55.5471F10000
G02X70.7142Y48.8649I2.4458J-9.1280F10000.0
G01X78.9385Y18.1713F10000
G02X78.6203Y17.6202I-0.4347J-0.1165F10000.0
G01X66.7712Y14.4452F10000
G02X66.2201Y14.7634I-0.1165J0.4347F10000.0
G03X64.1916Y14.2199I-1.0142J-0.2718
G02X63.8734Y13.6688I-0.4347J-0.1165
G01X63.7653Y13.6398F10000
X63.9460Y12.0508
X63.9489Y12.0000
Y0.0000
G02X63.4989Y-0.4500I-0.4500J0.0000F10000.0
G01X15.0050F10000
G02X14.5550Y0.0000I0.0000J0.4500F10000.0
G01Y12.0000F10000
X14.5579Y12.0508
X14.7386Y13.6398
X14.6305Y13.6688
G02X14.3123Y14.2199I0.1165J0.4347F10000.0
G03X12.2838Y14.7634I-1.0142J0.2718
G02X11.7327Y14.4452I-0.4347J0.1165
G01X-0.1165Y17.6202F10000
G02X-0.4347Y18.1713I0.1165J0.4347F10000.0
G01X7.7897Y48.8649F10000
G02X19.3635Y55.5471I9.1280J-2.4458F10000.0
G01X22.5193Y54.7015F10000
X23.0370Y56.6333
M08
M02
