(Filename: Крепление фиксатора на капот.tap)
(Post processor: Hypertherm edge.scpost)
(Date: 19.03.2019)
G21 (Units: Metric)
G40
G90
(Part: Развертка - Крепление фиксатора на капот [низ])
(Process: Врезка снаружи, 0, T1: Плазма, 0,9 мм прорез)
G00X8.0000Y6.7000
M07
G04 P0.5
G01Y4.7000F10000
G03I0.0000J2.8000F10000.0
G01Y6.7000F10000
M08
G00X25.2671Y7.9500
M07
G04 P0.5
G01Y5.9500
G03I0.0000J1.5500F10000.0
G01Y7.9500F10000
M08
G00X45.8014
M07
G04 P0.5
G01Y5.9500
G03I0.0000J1.5500F10000.0
G01Y7.9500F10000
M08
G00X63.0686Y6.7000
M07
G04 P0.5
G01Y4.7000
G03I0.0000J2.8000F10000.0
G01Y6.7000F10000
M08
G00X51.8014Y-2.4500
M07
G04 P0.5
G01Y-0.4500
G02X51.3514Y0.0000I0.0000J0.4500F10000.0
G03X50.2514I-0.5500J0.0000
G02X49.8014Y-0.4500I-0.4500J0.0000
G01X21.2671F10000
G02X20.8171Y0.0000I0.0000J0.4500F10000.0
G03X19.7171I-0.5500J0.0000
G02X19.2671Y-0.4500I-0.4500J0.0000
G01X5.0000F10000
G02X-0.4500Y5.0000I0.0000J5.4500F10000.0
G01Y10.0000F10000
G02X5.0000Y15.4500I5.4500J0.0000F10000.0
G01X19.5343F10000
G02X19.9843Y15.0000I0.0000J-0.4500F10000.0
G03X21.0843I0.5500J0.0000
G02X21.5343Y15.4500I0.4500J0.0000
G01X49.8014F10000
G02X50.2514Y15.0000I0.0000J-0.4500F10000.0
G03X51.3514I0.5500J0.0000
G02X51.8014Y15.4500I0.4500J0.0000
G01X66.0686F10000
G02X71.5186Y10.0000I0.0000J-5.4500F10000.0
G01Y5.0000F10000
G02X66.0686Y-0.4500I-5.4500J0.0000F10000.0
G01X51.8014F10000
Y-2.4500
(Part: Развертка - Крепление фиксатора на капот [верх])
(Process: Врезка снаружи, 0, T1: Плазма, 0,9 мм прорез)
M08
G00X16.7371Y21.9500
M07
G04 P0.5
G01Y19.9500
G03I0.0000J1.5500F10000.0
G01Y21.9500F10000
M08
G00X26.7371
M07
G04 P0.5
G01Y19.9500
G03I0.0000J1.5500F10000.0
G01Y21.9500F10000
M08
G00X36.7371
M07
G04 P0.5
G01Y19.9500
G03I0.0000J1.5500F10000.0
G01Y21.9500F10000
M08
G00X10.5998Y26.8169
M07
G04 P0.5
G01X10.7036Y28.8142
G03X10.1297Y28.3367I-0.0285J-0.5493F10000.0
G02X9.6248Y27.9493I-0.4462J0.0587
G01X-0.0587Y29.2242F10000
G02X-0.4462Y29.7291I0.0587J0.4462F10000.0
G01X2.1148Y49.1811F10000
G02X12.7174Y57.3168I9.3692J-1.2335F10000.0
G01X13.4780Y57.2167F10000
G02X13.8654Y56.7118I-0.0587J-0.4462F10000.0
G03X14.9560Y56.5682I0.5453J-0.0718
G02X15.4609Y56.9556I0.4462J-0.0587
G01X15.8273Y56.9074F10000
G02X19.4614Y56.9611I1.8277J-0.6945F10000.0
G01X21.6528Y51.6706F10000
G02X21.6179Y51.2586I-0.4157J-0.1722F10000.0
G03X31.8563I5.1192J-3.2243
G02X31.8213Y51.6706I0.3808J0.2398
G01X34.0127Y56.9611F10000
G02X37.6468Y56.9074I1.8064J-0.7482F10000.0
G01X38.0133Y56.9556F10000
G02X38.5182Y56.5682I0.0587J-0.4462F10000.0
G03X39.6088Y56.7118I0.5453J0.0718
G02X39.9962Y57.2167I0.4462J0.0587
G01X40.7568Y57.3168F10000
G02X51.3594Y49.1811I1.2335J-9.3692F10000.0
G01X53.9203Y29.7291F10000
G02X53.5329Y29.2242I-0.4462J-0.0587F10000.0
G01X43.8493Y27.9493F10000
G02X43.3444Y28.3367I-0.0587J0.4462F10000.0
G03X42.2493Y28.2799I-0.5453J-0.0718
G02X41.4165Y28.0559I-0.4498J0.0122
G03X40.9496Y28.3171I-0.4681J-0.2887
G01X40.9336Y28.3175F10000
X40.9177Y28.3163
G03X40.9791Y27.2180I0.0307J-0.5491F10000.0
G02X41.4535Y26.7938I0.0251J-0.4493
G01X41.4964Y26.0251F10000
X41.4971Y26.0000
Y17.0000
G02X41.0471Y16.5500I-0.4500J0.0000F10000.0
G01X12.4271F10000
G02X11.9771Y17.0000I0.0000J0.4500F10000.0
G01Y26.0000F10000
X11.9778Y26.0251
X12.0207Y26.7938
G02X12.4951Y27.2180I0.4493J-0.0251F10000.0
G03X12.5565Y28.3163I0.0307J0.5491
G01X12.5405Y28.3175F10000
X12.5246Y28.3171
G03X12.0577Y28.0559I0.0012J-0.5500F10000.0
G02X11.2248Y28.2799I-0.3830J0.2362
G03X10.7036Y28.8142I-0.5498J-0.0149
G01X10.5998Y26.8169F10000
M08
M02
